X:263
M:C|
L:1/4
K:G
(3 G/F/E/|D3/2E/G3/2A/|B/G/ B/d/{c/}BA/G/|{G/}F3/2E/ D/E/ F/G/|\
d/B/ A/G/EG/A/|BG/A/G||d|g/f/ g3/4a/4 f/4a/4b/ a/g/|\
f/e/ f3/4g/4 f/4g/4a/ g/f/|e/d/ e/f/ g/f/ e/d/|\
c/B/ A/G/ EG/A/|BGG|]

